symbolic/64x64/apps/recoll.svg

<svg xmlns="http://www.w3.org/2000/svg" width="64" height="64" version="1">
 <path style="opacity:0.2" d="M 6.75,6 C 5.2265,6 4,7.2265 4,8.75 L 4,17 4,28 4,39 4,50 4,58.25 C 4,59.7735 5.2265,61 6.75,61 l 8.25,0 11,0 11,0 11,0 8.25,0 C 57.7735,61 59,59.7735 59,58.25 L 59,50 59,39 59,28 59,17 59,8.75 C 59,7.2265 57.7735,6 56.25,6 L 48,6 37,6 26,6 15,6 6.75,6 Z"/>
 <rect style="fill:#e2731c" width="11" height="11" x="4" y="16" ry="0"/>
 <rect style="fill:#e2731c" width="11" height="11" x="4" y="38" ry="0"/>
 <path style="fill:#a3d341" d="m 4.0000004,48.999991 0,8.25 c 0,1.5235 1.2265,2.75 2.75,2.75 l 8.2499996,0 0,-11 -10.9999996,0 z"/>
 <rect style="fill:#e2731c" width="11" height="11" x="48" y="16" ry="0"/>
 <rect style="fill:#e2731c" width="11" height="11" x="48" y="38" ry="0"/>
 <path style="fill:#a3d341" d="m 48,48.999991 0,11 8.25,0 c 1.5235,0 2.75,-1.2265 2.75,-2.75 l 0,-8.25 -11,0 z"/>
 <rect style="fill:#e2731c" width="11" height="11" x="26" y="16" ry="0"/>
 <rect style="fill:#e2731c" width="11" height="11" x="26" y="38" ry="0"/>
 <rect style="fill:#a3d341" width="11" height="11" x="26" y="49" ry="0"/>
 <rect style="fill:#e2731c" width="11" height="11" x="15" y="5" ry="0"/>
 <rect style="fill:#6b6bd8" width="11" height="11" x="15" y="27" ry="0"/>
 <rect style="fill:#e2731c" width="11" height="11" x="15" y="49" ry="0"/>
 <rect style="fill:#e2731c" width="11" height="11" x="37" y="5" ry="0"/>
 <rect style="fill:#e2731c" width="11" height="11" x="37" y="27" ry="0"/>
 <rect style="fill:#e2731c" width="11" height="11" x="37" y="49" ry="0"/>
 <path style="opacity:0.2" d="m 6.7500004,6.0000083 c -1.5235,0 -2.75,1.2265 -2.75,2.75 l 0,8.2499997 10.9999996,0 0,-10.9999997 -8.2499996,0 z"/>
 <path style="fill:#a3d341" d="m 6.7500004,4.9999911 c -1.5235,0 -2.75,1.2265 -2.75,2.75 l 0,8.2499999 10.9999996,0 0,-10.9999999 -8.2499996,0 z"/>
 <rect style="opacity:0.2" width="11" height="11" x="4" y="28" ry="0"/>
 <rect style="fill:#a3d341" width="11" height="11" x="4" y="27" ry="0"/>
 <path style="opacity:0.2" d="m 48,6.0000083 0,10.9999997 11,0 0,-8.2499997 c 0,-1.5235 -1.2265,-2.75 -2.75,-2.75 l -8.25,0 z"/>
 <path style="fill:#a3d341" d="m 48,4.9999911 0,10.9999999 11,0 0,-8.2499999 c 0,-1.5235 -1.2265,-2.75 -2.75,-2.75 l -8.25,0 z"/>
 <rect style="opacity:0.2" width="11" height="11" x="48" y="28" ry="0"/>
 <rect style="fill:#a3d341" width="11" height="11" x="48" y="27" ry="0"/>
 <rect style="opacity:0.2" width="11" height="11" x="26" y="6" ry="0"/>
 <rect style="fill:#a3d341" width="11" height="11" x="26" y="5" ry="0"/>
 <rect style="opacity:0.2" width="11" height="11" x="26" y="28" ry="0"/>
 <rect style="fill:#a3d341" width="11" height="11" x="26" y="27" ry="0"/>
 <rect style="opacity:0.2" width="11" height="11" x="15" y="17" ry="0"/>
 <rect style="fill:#a3d341" width="11" height="11" x="15" y="16" ry="0"/>
 <rect style="opacity:0.2" width="11" height="11" x="15" y="39" ry="0"/>
 <rect style="fill:#a3d341" width="11" height="11" x="15" y="38" ry="0"/>
 <rect style="opacity:0.2" width="11" height="11" x="37" y="17" ry="0"/>
 <rect style="fill:#a3d341" width="11" height="11" x="37" y="16" ry="0"/>
 <rect style="opacity:0.2" width="11" height="11" x="37" y="39" ry="0"/>
 <rect style="fill:#a3d341" width="11" height="11" x="37" y="38" ry="0"/>
 <path style="fill:#ffffff;opacity:0.2" d="M 6.75 5 C 5.2265 5 4 6.2265 4 7.75 L 4 8.75 C 4 7.2265 5.2265 6 6.75 6 L 15 6 L 26 6 L 37 6 L 48 6 L 56.25 6 C 57.7735 6 59 7.2265 59 8.75 L 59 7.75 C 59 6.2265 57.7735 5 56.25 5 L 48 5 L 37 5 L 26 5 L 15 5 L 6.75 5 z"/>
</svg>

<svg xmlns="http://www.w3.org/2000/svg" width="64" height="64" version="1"><path style="opacity:.2" d="M6.75 6A2.744 2.744 0 0 0 4 8.75v49.5A2.744 2.744 0 0 0 6.75 61h49.5A2.744 2.744 0 0 0 59 58.25V8.75A2.744 2.744 0 0 0 56.25 6H6.75z"/><rect style="fill:#e2731c" width="11" height="11" x="4" y="16" ry="0"/><rect style="fill:#e2731c" width="11" height="11" x="4" y="38" ry="0"/><path style="fill:#a3d341" d="M4 49v8.25A2.744 2.744 0 0 0 6.75 60H15V49H4z"/><rect style="fill:#e2731c" width="11" height="11" x="48" y="16" ry="0"/><rect style="fill:#e2731c" width="11" height="11" x="48" y="38" ry="0"/><path style="fill:#a3d341" d="M48 49v11h8.25A2.744 2.744 0 0 0 59 57.25V49H48z"/><rect style="fill:#e2731c" width="11" height="11" x="26" y="16" ry="0"/><rect style="fill:#e2731c" width="11" height="11" x="26" y="38" ry="0"/><rect style="fill:#a3d341" width="11" height="11" x="26" y="49" ry="0"/><rect style="fill:#e2731c" width="11" height="11" x="15" y="5" ry="0"/><rect style="fill:#6b6bd8" width="11" height="11" x="15" y="27" ry="0"/><rect style="fill:#e2731c" width="11" height="11" x="15" y="49" ry="0"/><rect style="fill:#e2731c" width="11" height="11" x="37" y="5" ry="0"/><rect style="fill:#e2731c" width="11" height="11" x="37" y="27" ry="0"/><rect style="fill:#e2731c" width="11" height="11" x="37" y="49" ry="0"/><path style="opacity:.2" d="M6.75 6A2.744 2.744 0 0 0 4 8.75V17h11V6H6.75z"/><path style="fill:#a3d341" d="M6.75 5A2.744 2.744 0 0 0 4 7.75V16h11V5H6.75z"/><rect style="opacity:.2" width="11" height="11" x="4" y="28" ry="0"/><rect style="fill:#a3d341" width="11" height="11" x="4" y="27" ry="0"/><path style="opacity:.2" d="M48 6v11h11V8.75A2.744 2.744 0 0 0 56.25 6H48z"/><path style="fill:#a3d341" d="M48 5v11h11V7.75A2.744 2.744 0 0 0 56.25 5H48z"/><rect style="opacity:.2" width="11" height="11" x="48" y="28" ry="0"/><rect style="fill:#a3d341" width="11" height="11" x="48" y="27" ry="0"/><rect style="opacity:.2" width="11" height="11" x="26" y="6" ry="0"/><rect style="fill:#a3d341" width="11" height="11" x="26" y="5" ry="0"/><rect style="opacity:.2" width="11" height="11" x="26" y="28" ry="0"/><rect style="fill:#a3d341" width="11" height="11" x="26" y="27" ry="0"/><rect style="opacity:.2" width="11" height="11" x="15" y="17" ry="0"/><rect style="fill:#a3d341" width="11" height="11" x="15" y="16" ry="0"/><rect style="opacity:.2" width="11" height="11" x="15" y="39" ry="0"/><rect style="fill:#a3d341" width="11" height="11" x="15" y="38" ry="0"/><rect style="opacity:.2" width="11" height="11" x="37" y="17" ry="0"/><rect style="fill:#a3d341" width="11" height="11" x="37" y="16" ry="0"/><rect style="opacity:.2" width="11" height="11" x="37" y="39" ry="0"/><rect style="fill:#a3d341" width="11" height="11" x="37" y="38" ry="0"/><path style="fill:#fff;opacity:.2" d="M6.75 5A2.744 2.744 0 0 0 4 7.75v1A2.744 2.744 0 0 1 6.75 6h49.5A2.744 2.744 0 0 1 59 8.75v-1A2.744 2.744 0 0 0 56.25 5H6.75z"/></svg>
